communes/952.svg

<?xml version="1.0" encoding="UTF-8" standalone="no"?>
<svg
   xmlns:dc="http://purl.org/dc/elements/1.1/"
   xmlns:cc="http://web.resource.org/cc/"
   xmlns:rdf="http://www.w3.org/1999/02/22-rdf-syntax-ns#"
   xmlns:svg="http://www.w3.org/2000/svg"
   xmlns="http://www.w3.org/2000/svg"
   xmlns:xlink="http://www.w3.org/1999/xlink"
   xmlns:sodipodi="http://sodipodi.sourceforge.net/DTD/sodipodi-0.dtd"
   xmlns:inkscape="http://www.inkscape.org/namespaces/inkscape"
   height="763"
   width="603"
   version="1.0"
   id="svg20"
   sodipodi:version="0.32"
   inkscape:version="0.44.1"
   sodipodi:docname="Dürrenroth-coat of arms.svg"
   sodipodi:docbase="F:\Mis Documentos\Mis imágenes\Encyclopédie\Escudos de Suiza">
  <metadata
     id="metadata31">
    <rdf:RDF>
      <cc:Work
         rdf:about="">
        <dc:format>image/svg+xml</dc:format>
        <dc:type
           rdf:resource="http://purl.org/dc/dcmitype/StillImage" />
        <dc:date>07-AUG-2006</dc:date>
        <dc:creator>
          <cc:Agent>
            <dc:title>Jérôme BLUM (wagner51)</dc:title>
          </cc:Agent>
        </dc:creator>
        <cc:license
           rdf:resource="http://creativecommons.org/licenses/GPL/2.0/" />
        <dc:coverage />
        <dc:description>Gabarit pour le Projet:Blasons de WIkipédia</dc:description>
        <dc:subject>
          <rdf:Bag>
            <rdf:li>blason suisse modèle gabarit projet blasons</rdf:li>
          </rdf:Bag>
        </dc:subject>
        <dc:language>fr</dc:language>
        <dc:title>Gabrit d'un blason suisse</dc:title>
      </cc:Work>
      <cc:License
         rdf:about="http://creativecommons.org/licenses/GPL/2.0/">
        <cc:permits
           rdf:resource="http://web.resource.org/cc/Reproduction" />
        <cc:permits
           rdf:resource="http://web.resource.org/cc/Distribution" />
        <cc:requires
           rdf:resource="http://web.resource.org/cc/Notice" />
        <cc:permits
           rdf:resource="http://web.resource.org/cc/DerivativeWorks" />
        <cc:requires
           rdf:resource="http://web.resource.org/cc/ShareAlike" />
        <cc:requires
           rdf:resource="http://web.resource.org/cc/SourceCode" />
      </cc:License>
    </rdf:RDF>
  </metadata>
  <defs
     id="defs29">
    <linearGradient
       id="linearGradient2893">
      <stop
         style="stop-color:#ffffff;stop-opacity:0.3137255;"
         offset="0"
         id="stop2895" />
      <stop
         id="stop2897"
         offset="0.19"
         style="stop-color:#ffffff;stop-opacity:0.25098041;" />
      <stop
         style="stop-color:#6b6b6b;stop-opacity:0.1254902;"
         offset="0.60000002"
         id="stop2901" />
      <stop
         style="stop-color:#000000;stop-opacity:0.1254902;"
         offset="1"
         id="stop2899" />
    </linearGradient>
    <linearGradient
       id="linearGradient2955">
      <stop
         style="stop-color:white;stop-opacity:0;"
         offset="0"
         id="stop2965" />
      <stop
         style="stop-color:black;stop-opacity:0.64583331;"
         offset="1"
         id="stop2959" />
    </linearGradient>
    <radialGradient
       inkscape:collect="always"
       xlink:href="#linearGradient2893"
       id="radialGradient3236"
       gradientUnits="userSpaceOnUse"
       gradientTransform="matrix(1.215027,1.531577e-24,1.464684e-23,1.266667,-839.1924,-490.4894)"
       cx="858.04236"
       cy="579.93323"
       fx="858.04236"
       fy="579.93323"
       r="300" />
  </defs>
  <sodipodi:namedview
     inkscape:window-height="682"
     inkscape:window-width="1024"
     inkscape:pageshadow="2"
     inkscape:pageopacity="0.0"
     guidetolerance="10.0"
     gridtolerance="10.0"
     objecttolerance="10.0"
     borderopacity="1.0"
     bordercolor="#666666"
     pagecolor="#ffffff"
     id="base"
     inkscape:zoom="0.48301887"
     inkscape:cx="258.38383"
     inkscape:cy="328.26164"
     inkscape:window-x="-4"
     inkscape:window-y="-4"
     inkscape:current-layer="layer2"
     showgrid="true" />
  <desc
     id="desc22">Coat of Arms of Canton of Freiburg (Fribourg)</desc>
  <g
     inkscape:groupmode="layer"
     id="layer1"
     inkscape:label="Fond écu"
     sodipodi:insensitive="true">
    <path
       id="path1899"
       d="M 1.5,1.49998 L 1.5,460.3679 C 1.5,626.6785 135.81456,761.5 301.49999,761.5 C 467.18543,761.5 601.5,626.6785 601.5,460.3679 L 601.5,1.49998 L 1.5,1.49998 z "
       style="fill:white;fill-opacity:1" />
  </g>
  <g
     inkscape:groupmode="layer"
     id="layer2"
     inkscape:label="Meubles"
     sodipodi:insensitive="true">
    <path
       style="fill:#e20909;fill-opacity:1;fill-rule:evenodd;stroke:black;stroke-width:3;stroke-linecap:butt;stroke-linejoin:miter;stroke-miterlimit:4;stroke-dasharray:none;stroke-opacity:1"
       d="M 2,1.5 L 2,201.78125 C 57.960271,282.58998 102.64726,245.12923 155.4375,284.1875 C 200.30523,317.38408 191.1261,361.5515 236.46875,398.0625 C 276.18533,430.04322 323.4963,403.53419 358.84375,435.21875 C 390.15106,463.2818 395.48398,515.50302 429.25,536.78125 C 484.22789,571.42646 526.97103,542.52139 570,591.96875 C 573.73891,585.58486 577.01642,579.08993 579.96875,572.53125 C 593.84119,537.8624 601.5,500.02321 601.5,460.375 L 601.5,446.625 C 576.94232,436.26 542.88333,441.16697 504.5,420.0625 C 459.50929,395.32504 462.96882,340.5599 422.8125,311.3125 C 368.4926,271.74925 332.05801,307.68209 295.40625,276.5625 C 251.6995,239.45267 270.7491,190.59034 222.46875,162.4375 C 184.16129,140.09994 125.36058,150.89034 84.5,121.5 C 28.714413,81.37431 54.594928,24.581023 9.5,1.5 L 2,1.5 z "
       id="path1957" />
    <path
       style="fill:#e20909;fill-opacity:1;fill-rule:evenodd;stroke:black;stroke-width:3.74818563px;stroke-linecap:butt;stroke-linejoin:miter;stroke-opacity:1"
       d="M 301.9375,527 C 251.27367,527.65114 200.9147,559.31947 207.75,625.1875 C 151.6173,575.97655 96.016835,621.97204 75.5,658.375 C 128.63815,719.43404 205.91473,758.75952 292.40625,761.34375 C 261.35456,724.02812 222.71445,671.2361 206.71289,624.4375 C 222.78832,671.18498 261.61113,723.84562 292.46875,761.34375 C 295.46772,761.43274 298.47955,761.5 301.5,761.5 C 306.4356,761.5 311.34155,761.36154 316.21875,761.125 C 330.73394,739.87008 347.12489,719.14185 361.53125,697.875 C 347.30792,719.09657 331.09629,739.99372 316.34375,761.125 C 399.71327,757.04711 474.13371,718.81312 526.03125,660.0625 C 508.97403,605.38765 440.24148,590.09416 396.25,626.53125 C 390.19254,651.31381 377.40129,674.28792 362.34375,696.65625 C 377.48043,673.93215 390.21929,650.80928 396.25,626.53125 C 410.16105,560.77672 355.86996,526.30685 301.9375,527 z "
       id="path2845"
       sodipodi:nodetypes="ccccccscccccccc" />
    <path
       sodipodi:type="star"
       style="fill:#e20909;fill-opacity:1;stroke:black;stroke-width:3;stroke-miterlimit:4;stroke-dasharray:none;stroke-opacity:1"
       id="path5514"
       sodipodi:sides="6"
       sodipodi:cx="409.92188"
       sodipodi:cy="83.9375"
       sodipodi:r1="153.04916"
       sodipodi:r2="76.52459"
       sodipodi:arg1="0.52417963"
       sodipodi:arg2="1.0477784"
       inkscape:flatsided="false"
       inkscape:rounded="0"
       inkscape:randomized="0"
       d="M 542.42187,160.53906 L 448.14567,150.23195 L 409.83298,236.98664 L 371.62109,150.1875 L 277.33298,160.38508 L 333.3973,83.893051 L 277.42188,7.335942 L 371.69808,17.643048 L 410.01077,-69.111638 L 448.22266,17.687497 L 542.51077,7.48992 L 486.44645,83.981949 L 542.42187,160.53906 z "
       transform="matrix(0.932217,0,0,0.932217,72.8638,90.6787)" />
  </g>
  <g
     inkscape:groupmode="layer"
     id="layer3"
     inkscape:label="Reflet final"
     style="display:inline"
     sodipodi:insensitive="true">
    <path
       style="fill:url(#radialGradient3236);fill-opacity:1"
       d="M 1.5,1.5 L 1.5,460.3679 C 1.5,626.67854 135.81454,761.5 301.49993,761.5 C 467.1854,761.5 601.5,626.67854 601.5,460.3679 L 601.5,1.5 L 1.5,1.5 z "
       id="path2346" />
  </g>
  <g
     inkscape:groupmode="layer"
     id="layer4"
     inkscape:label="Contour final"
     style="display:inline"
     sodipodi:insensitive="true">
    <path
       style="fill:none;fill-opacity:1;stroke:black;stroke-width:3;stroke-miterlimit:4;stroke-dasharray:none;stroke-opacity:1"
       d="M 1.5,1.5 L 1.5,460.36794 C 1.5,626.67854 135.81454,761.5 301.49993,761.5 C 467.1854,761.5 601.5,626.67854 601.5,460.36794 L 601.5,1.5 L 1.5,1.5 z "
       id="path3239" />
  </g>
</svg>

<?xml version="1.0" encoding="UTF-8"?>
<svg version="1.0" viewBox="0 0 603 763" xmlns="http://www.w3.org/2000/svg" xmlns:cc="http://web.resource.org/cc/" xmlns:dc="http://purl.org/dc/elements/1.1/" xmlns:rdf="http://www.w3.org/1999/02/22-rdf-syntax-ns#" xmlns:xlink="http://www.w3.org/1999/xlink">
<metadata>
<rdf:RDF>
<cc:Work rdf:about="">
<dc:format>image/svg+xml</dc:format>
<dc:type rdf:resource="http://purl.org/dc/dcmitype/StillImage"/>
<dc:date>07-AUG-2006</dc:date>
<dc:creator>
<cc:Agent>
<dc:title>Jérôme BLUM (wagner51)</dc:title>
</cc:Agent>
</dc:creator>
<cc:license rdf:resource="http://creativecommons.org/licenses/GPL/2.0/"/>
<dc:coverage/>
<dc:description>Gabarit pour le Projet:Blasons de WIkipédia</dc:description>
<dc:subject>
<rdf:Bag>
<rdf:li>blason suisse modèle gabarit projet blasons</rdf:li>
</rdf:Bag>
</dc:subject>
<dc:language>fr</dc:language>
<dc:title>Gabrit d'un blason suisse</dc:title>
</cc:Work>
<cc:License rdf:about="http://creativecommons.org/licenses/GPL/2.0/">
<cc:permits rdf:resource="http://web.resource.org/cc/Reproduction"/>
<cc:permits rdf:resource="http://web.resource.org/cc/Distribution"/>
<cc:requires rdf:resource="http://web.resource.org/cc/Notice"/>
<cc:permits rdf:resource="http://web.resource.org/cc/DerivativeWorks"/>
<cc:requires rdf:resource="http://web.resource.org/cc/ShareAlike"/>
<cc:requires rdf:resource="http://web.resource.org/cc/SourceCode"/>
</cc:License>
</rdf:RDF>
</metadata>
<defs>
<radialGradient id="a" cx="858.04" cy="579.93" r="300" gradientTransform="matrix(1.215 1.5316e-24 1.4647e-23 1.2667 -839.19 -490.49)" gradientUnits="userSpaceOnUse">
<stop stop-color="#fff" stop-opacity=".31373" offset="0"/>
<stop stop-color="#fff" stop-opacity=".25098" offset=".19"/>
<stop stop-color="#6b6b6b" stop-opacity=".12549" offset=".6"/>
<stop stop-opacity=".12549" offset="1"/>
</radialGradient>
</defs>
<desc>Coat of Arms of Canton of Freiburg (Fribourg)</desc>
<path d="m1.5 1.5v458.87c0 166.31 134.31 301.13 300 301.13 165.69 0 300-134.82 300-301.13v-458.87h-600z" fill="#fff"/>
<g fill="#e20909" stroke="#000">
<path d="m2 1.5v200.28c55.96 80.809 100.65 43.348 153.44 82.406 44.868 33.197 35.689 77.364 81.031 113.88 39.717 31.981 87.028 5.4717 122.38 37.156 31.307 28.063 36.64 80.284 70.406 101.56 54.978 34.645 97.721 5.7401 140.75 55.188 3.7389-6.3839 7.0164-12.879 9.9688-19.438 13.872-34.669 21.531-72.508 21.531-112.16v-13.75c-24.558-10.365-58.617-5.458-97-26.562-44.991-24.737-41.531-79.503-81.688-108.75-54.32-39.563-90.754-3.6304-127.41-34.75-43.707-37.11-24.657-85.972-72.938-114.12-38.307-22.338-97.108-11.547-137.97-40.938-55.786-40.126-29.905-96.919-75-120h-7.5z" fill-rule="evenodd" stroke-width="3"/>
<path d="m301.94 527c-50.664 0.65114-101.02 32.319-94.188 98.188-56.133-49.211-111.73-3.2155-132.25 33.188 53.138 61.059 130.41 100.38 216.91 102.97-31.052-37.316-69.692-90.108-85.693-136.91 16.075 46.747 54.898 99.408 85.756 136.91 2.999 0.08899 6.0108 0.15625 9.0312 0.15625 4.9356 0 9.8416-0.13846 14.719-0.375 14.515-21.255 30.906-41.983 45.312-63.25-14.223 21.222-30.435 42.119-45.188 63.25 83.37-4.0779 157.79-42.312 209.69-101.06-17.057-54.675-85.79-69.968-129.78-33.531-6.0575 24.783-18.849 47.757-33.906 70.125 15.137-22.724 27.876-45.847 33.906-70.125 13.911-65.755-40.38-100.22-94.312-99.531z" fill-rule="evenodd" stroke-width="3.7482px"/>
<path transform="matrix(.93222 0 0 .93222 72.864 90.679)" d="m542.42 160.54-94.276-10.307-38.313 86.755-38.212-86.799-94.288 10.198 56.064-76.492-55.975-76.557 94.276 10.307 38.313-86.755 38.212 86.799 94.288-10.198-56.064 76.492 55.975 76.557z" stroke-width="3"/>
</g>
<g>
<path d="m1.5 1.5v458.87c0 166.31 134.31 301.13 300 301.13 165.69 0 300-134.82 300-301.13v-458.87h-600z" fill="url(#a)"/>
<path d="m1.5 1.5v458.87c0 166.31 134.31 301.13 300 301.13 165.69 0 300-134.82 300-301.13v-458.87h-600z" fill="none" stroke="#000" stroke-width="3"/>
</g>
</svg>
